assets/imgs/gmail.svg

<svg width="15" height="14" viewBox="0 0 15 14" fill="none" xmlns="http://www.w3.org/2000/svg">
<path d="M14.3588 5.37819V5.04386C14.3588 4.42268 14.3588 4.1121 14.3176 3.85222C14.0911 2.42168 12.9691 1.29972 11.5386 1.07314C11.2787 1.03198 10.9681 1.03198 10.3469 1.03198H6.33502C4.46263 1.03198 3.52644 1.03198 2.81128 1.39638C2.18221 1.7169 1.67076 2.22835 1.35023 2.85742C0.98584 3.57258 0.98584 4.50877 0.98584 6.38116V7.71845C0.98584 9.59087 0.98584 10.527 1.35023 11.2422C1.67076 11.8713 2.18221 12.3827 2.81128 12.7032C3.52644 13.0676 4.46263 13.0676 6.33502 13.0676H10.3469C10.9681 13.0676 11.2787 13.0676 11.5386 13.0264C12.9691 12.7999 14.0911 11.6779 14.3176 10.2474C14.3588 9.98751 14.3588 9.67692 14.3588 9.05575V8.72142M11.6842 4.37522L11.0155 4.82098L10.6395 5.07168C9.56712 5.7866 9.03093 6.14406 8.45142 6.28293C7.93923 6.40563 7.40539 6.40563 6.8932 6.28293C6.31367 6.14406 5.77748 5.7866 4.70512 5.07168L4.32908 4.82098L3.66043 4.37522" stroke="white" stroke-width="1.00297" stroke-linecap="round"/>
</svg>

<svg xmlns="http://www.w3.org/2000/svg" width="15" height="14" fill="none"><path stroke="#fff" stroke-linecap="round" stroke-width="1.003" d="M14.359 5.378v-.334c0-.621 0-.932-.041-1.192a3.34 3.34 0 0 0-2.78-2.779c-.26-.041-.57-.041-1.191-.041H6.335c-1.872 0-2.809 0-3.524.364-.629.32-1.14.832-1.46 1.461C.985 3.573.985 4.51.985 6.381v1.337c0 1.873 0 2.809.364 3.524.32.63.832 1.14 1.461 1.461.715.365 1.652.365 3.524.365h4.012c.621 0 .932 0 1.192-.042a3.34 3.34 0 0 0 2.779-2.779c.04-.26.04-.57.04-1.191V8.72m-2.674-4.346-.668.446-.377.25c-1.072.716-1.608 1.073-2.188 1.212a3.34 3.34 0 0 1-1.558 0c-.58-.139-1.116-.496-2.188-1.211L4.33 4.82l-.669-.446"/></svg>
